X:20
T: Liang ba shanzi
N: C0026
O: China, Shaanxi, Ziyang(s?dl. d. Qinling-Gebirges)
S: I, 76]
N: ]
R: Shange. Biaoda aiqing]
M: 2/4
L: 1/16
K: Bb
gbfgb4 | cbg2f4 |
b2b4d2 | c4cbg2 |
b2b4d2 | c4cbg2 |
b3cg2b2 | bcgbc4 | f3gf4 |
b2g4d2 | b2cbg2b2 | f8

